src/assets/filled/Triangle.svg

<svg width="24" height="24" viewBox="0 0 24 24"  xmlns="http://www.w3.org/2000/svg">
<path d="M10.0498 2.85003L1.25986 11.64C1.05986 11.84 1.05986 12.15 1.25986 12.35L10.0498 21.14C10.3698 21.45 10.8999 21.23 10.8999 20.79V18.2C10.8999 18.07 10.8499 17.94 10.7499 17.85L5.24985 12.35C5.04985 12.15 5.04985 11.84 5.24985 11.64L10.7499 6.14004C10.8399 6.05004 10.8999 5.92003 10.8999 5.79003V3.20004C10.8999 2.76004 10.3598 2.54003 10.0498 2.85003Z" />
<path d="M13.7499 2.85003L22.5399 11.64C22.7399 11.84 22.7399 12.15 22.5399 12.35L13.7499 21.14C13.4399 21.45 12.8999 21.23 12.8999 20.79V18.2C12.8999 18.07 12.9499 17.94 13.0499 17.85L18.5499 12.35C18.7499 12.15 18.7499 11.84 18.5499 11.64L13.0499 6.14004C12.9599 6.05004 12.8999 5.92003 12.8999 5.79003V3.20004C12.8999 2.76004 13.4399 2.54003 13.7499 2.85003Z" />
<path d="M10.0498 9.85003L8.25986 11.64C8.05986 11.84 8.05986 12.15 8.25986 12.35L10.0498 14.14C10.3698 14.45 10.8999 14.23 10.8999 13.79V10.2C10.8999 9.76004 10.3598 9.54003 10.0498 9.85003Z" />
</svg>

<?xml version="1.0" encoding="UTF-8"?>
<svg width="24" height="24" viewBox="0 0 24 24" xmlns="http://www.w3.org/2000/svg">
 <path d="m10.05 2.85-8.7899 8.79c-0.2 0.2-0.2 0.51 0 0.71l8.7899 8.79c0.32 0.31 0.8501 0.09 0.8501-0.35v-2.59c0-0.13-0.05-0.26-0.15-0.35l-5.5-5.5c-0.2-0.2-0.2-0.51 0-0.71l5.5-5.5c0.09-0.09 0.15-0.22001 0.15-0.35001v-2.59c0-0.44-0.5401-0.66001-0.8501-0.35001z"/>
 <path d="m13.75 2.85 8.79 8.79c0.2 0.2 0.2 0.51 0 0.71l-8.79 8.79c-0.31 0.31-0.85 0.09-0.85-0.35v-2.59c0-0.13 0.05-0.26 0.15-0.35l5.5-5.5c0.2-0.2 0.2-0.51 0-0.71l-5.5-5.5c-0.09-0.09-0.15-0.22001-0.15-0.35001v-2.59c0-0.44 0.54-0.66001 0.85-0.35001z"/>
 <path d="m10.05 9.85-1.7899 1.79c-0.2 0.2-0.2 0.51 0 0.71l1.7899 1.79c0.32 0.31 0.8501 0.09 0.8501-0.35v-3.59c0-0.43996-0.5401-0.65997-0.8501-0.34997z"/>
</svg>
